X:3
T:Amoureuse
B:Les p'tites danses d'Erezee
O:Wallonie
M:2/4
L:1/16
Q:C4=108
K:G
D2 |: G2GB G2A2 | BGBd B2G2 | AFAc A2F2 | GABc d2 D2 |
G2GB G2A2 | BGBd B2G2 | AFAc A2F2 |1 GBdB G2 D2 :|2 GBdB G2 B2 |
d3c B2A2 | B2 G4 B2 | d3c B2A2 | B2 G4 B2 |
c2cd c2 A2 | B2Bc B2 G2 | A2AB dcBA G2B2 G2 ||
